**kern	**kern
*part1	*part1
*staff2	*staff1
*I"Piano	*
*clefF4	*clefG2
*k[b-e-]	*k[b-e-]
=1	=1
4D	4fff'
4F 4B- 4d	4ff'
4F 4B- 4d	4fff'
=	=
4C	4ff'
4F 4A 4e-	(8fffL
.	8ccc
4F 4A 4e-	8aa
.	8ffJ)
=	=
4C	4fff'
4F 4A 4e-	4ff'
4F 4A 4e-	4fff'
=	=
4FF	2a 2ee- 2aa
4F 4A 4e-	.
4F 4A 4e-	4a 4ee- 4aa
=	=
4FF	4b- 4dd 4bb-
4F 4B- 4d	4b- 4dd
4F 4B- 4d	4b- 4gg
=	=
4FF	4a 4ff
4F 4A	4.e- 4.cc
4F 4A	.
.	8f 8cc
=	=
(4BB- 4B-	(4d 4b-
4c	4e- 4an
4d)	4f) 4a-X
=||	=||
*-	*-
!!!system-decoration: {(s1,s2)}
